SF_Symbols/suit.spade.fill.svg

<?xml version="1.0" encoding="UTF-8"?>
<svg xmlns="http://www.w3.org/2000/svg" xmlns:xlink="http://www.w3.org/1999/xlink" width="24" height="24" viewBox="0 0 24 24" version="1.1">
<g id="surface1">
<path style=" stroke:none;fill-rule:nonzero;fill:rgb(100%,100%,100%);fill-opacity:1;" d="M 0.996094 14.742188 C 0.996094 15.671875 1.214844 16.511719 1.652344 17.261719 C 2.089844 18.011719 2.683594 18.605469 3.433594 19.042969 C 4.183594 19.480469 5.023438 19.699219 5.953125 19.699219 C 6.734375 19.699219 7.484375 19.558594 8.203125 19.277344 C 8.921875 18.988281 9.453125 18.5 9.796875 17.8125 L 9.914062 17.8125 C 9.914062 18.203125 9.824219 18.574219 9.644531 18.925781 C 9.464844 19.277344 9.242188 19.605469 8.976562 19.910156 C 8.710938 20.214844 8.441406 20.492188 8.167969 20.742188 C 7.902344 20.992188 7.683594 21.207031 7.511719 21.386719 C 7.300781 21.605469 7.167969 21.835938 7.113281 22.078125 C 7.066406 22.320312 7.082031 22.546875 7.160156 22.757812 C 7.246094 22.976562 7.382812 23.152344 7.570312 23.285156 C 7.765625 23.417969 8 23.484375 8.273438 23.484375 L 15.714844 23.484375 C 15.988281 23.484375 16.21875 23.417969 16.40625 23.285156 C 16.59375 23.152344 16.730469 22.976562 16.816406 22.757812 C 16.902344 22.546875 16.917969 22.320312 16.863281 22.078125 C 16.816406 21.835938 16.6875 21.605469 16.476562 21.386719 C 16.296875 21.207031 16.074219 20.992188 15.808594 20.742188 C 15.542969 20.492188 15.277344 20.214844 15.011719 19.910156 C 14.746094 19.605469 14.523438 19.277344 14.34375 18.925781 C 14.164062 18.574219 14.074219 18.203125 14.074219 17.8125 L 14.191406 17.8125 C 14.535156 18.5 15.066406 18.988281 15.785156 19.277344 C 16.503906 19.558594 17.25 19.699219 18.023438 19.699219 C 18.960938 19.699219 19.804688 19.480469 20.554688 19.042969 C 21.304688 18.605469 21.898438 18.011719 22.335938 17.261719 C 22.773438 16.511719 22.992188 15.671875 22.992188 14.742188 C 22.992188 13.867188 22.816406 13.066406 22.464844 12.339844 C 22.121094 11.605469 21.660156 10.914062 21.082031 10.265625 C 20.503906 9.609375 19.859375 8.964844 19.148438 8.332031 C 18.4375 7.699219 17.714844 7.046875 16.980469 6.375 C 16.246094 5.703125 15.550781 4.980469 14.894531 4.207031 C 14.238281 3.433594 13.675781 2.574219 13.207031 1.628906 C 13.089844 1.394531 12.933594 1.195312 12.738281 1.03125 C 12.550781 0.867188 12.300781 0.785156 11.988281 0.785156 C 11.683594 0.785156 11.433594 0.867188 11.238281 1.03125 C 11.050781 1.195312 10.898438 1.394531 10.78125 1.628906 C 10.3125 2.574219 9.75 3.433594 9.09375 4.207031 C 8.4375 4.980469 7.738281 5.703125 6.996094 6.375 C 6.261719 7.046875 5.539062 7.699219 4.828125 8.332031 C 4.125 8.964844 3.484375 9.609375 2.90625 10.265625 C 2.328125 10.914062 1.863281 11.605469 1.511719 12.339844 C 1.167969 13.066406 0.996094 13.867188 0.996094 14.742188 Z M 0.996094 14.742188 "/>
</g>
</svg>

<svg xmlns="http://www.w3.org/2000/svg" width="24" height="24"><path style="stroke:none;fill-rule:nonzero;fill:#fff;fill-opacity:1" d="M.996 14.742c0 .93.219 1.77.656 2.52a4.87 4.87 0 0 0 1.782 1.781c.75.437 1.59.656 2.52.656.769 0 1.534-.14 2.25-.422.698-.27 1.265-.793 1.593-1.465h.117c0 .391-.09.762-.27 1.114a4.965 4.965 0 0 1-.667.984c-.266.305-.536.582-.809.832-.266.25-.484.465-.656.645-.211.218-.344.449-.399.691-.047.242-.031.469.047.68.086.219.223.394.41.527.196.133.43.2.703.2h7.442c.273 0 .504-.067.691-.2.188-.133.324-.308.41-.527.086-.211.102-.438.047-.68-.047-.242-.175-.473-.386-.691-.18-.18-.403-.395-.668-.645-.266-.25-.532-.527-.797-.832a4.965 4.965 0 0 1-.668-.984 2.402 2.402 0 0 1-.27-1.113h.117a2.956 2.956 0 0 0 1.594 1.464 6.09 6.09 0 0 0 2.238.422c.938 0 1.782-.219 2.532-.656a4.899 4.899 0 0 0 1.78-1.781c.438-.75.657-1.59.657-2.52 0-.875-.176-1.676-.527-2.402a8.581 8.581 0 0 0-1.383-2.074 22.58 22.58 0 0 0-1.934-1.934c-.71-.633-1.433-1.285-2.168-1.957a23.754 23.754 0 0 1-2.085-2.168 12.803 12.803 0 0 1-1.688-2.578 1.842 1.842 0 0 0-.469-.598c-.187-.164-.437-.246-.75-.246-.304 0-.554.082-.75.246-.187.164-.34.364-.457.598a12.803 12.803 0 0 1-1.687 2.578 22.907 22.907 0 0 1-2.098 2.168c-.734.672-1.457 1.324-2.168 1.957a23.623 23.623 0 0 0-1.922 1.934 8.86 8.86 0 0 0-1.394 2.074c-.344.726-.516 1.527-.516 2.402Zm0 0"/></svg>
